!!!COM: Bach, Johann Sebastian
!!!OPR: Joh. Seb. Bachs vierstimmige Choralgesänge
!!!XEN: Four-part Chorales
!!!OTL: 162. Valet will ich dir geben
!!!SCT: BWV 415
!!!SCA: Thematisch-systematisches Verzeichnis der musikalischen Werke Johann Sebastian Bach: Bach-Werke-Verzeichnis (Schmieder)
!!!YOR: Bach Gesellschaft Edition xxxix
!!!ENC: Steven Rasmussen
!!!CDT: 1685/3//-1750/7/28/
!!!OCY: Deutschland
!!!YEC: Copyright (c) 1994, 2000 Center for Computer Assisted Research in the Humanities
!!!YEM: Rights to all derivative editions reserved
!!!YEN: United States of America
**kern	**silbe	**kern	**kern	**kern
*I:[SOPRANO]	*I:[SOPRANO]	*I:[ALTO]	*I:[TENORE]	*I:[BASSO]
*>[A,A,B]	*	*>[A,A,B]	*>[A,A,B]	*>[A,A,B]
*>A	*	*>A	*>A	*>A
*clefG2	*	*clefG2	*clefGv2	*clefF4
*k[f#c#]	*	*k[f#c#]	*k[f#c#]	*k[f#c#]
*D:	*	*D:	*D:	*D:
*M4/4	*	*M4/4	*M4/4	*M4/4
4d	Va-dein	4A	8F#L	8DL
.	.	.	8EJ	8C#J
=1	=1	=1	=1	=1
4a	-letsÃ¼nd-	4d	8F#L	8DL
.	.	.	8GJ	8EJ
4a	will-lich	4d	8AL	8F#L
.	.	.	8F#J	8DJ
4b	ichbÃ¶-	4d	4G	8GL
.	.	.	.	8F#J
4cc#	dir-ses	4g	8GL	4E
.	.	.	8AJ	.
=2	=2	=2	=2	=2
2dd	ge-Le-	4g	4B	8BBL
.	.	.	.	8C#J
.	.	8f#L	8AL	4D
.	.	8eJ	8GJ	.
4dd;	-ben,-ben	4f#;	4A;	4DD;
4ff#	dudurch-	8aL	4a	4d
.	.	8bJ	.	.
=3	=3	=3	=3	=3
4ee	ar--aus	4cc#	4g	4A#
4dd	-gemir	4b	4f#	8BL
.	.	.	.	8AnJ
4dd	fal-nicht	4b	4fn	4G#
4cc#	-schege-	4a	4e	4A
=4	=4	=4	=4	=4
2.dd;	Welt,-fÃ¤llt.	2.a;	2.f#;	2.D;
=:|!	=:|!	=:|!	=:|!	=:|!
*>B	*	*>B	*>B	*>B
8ddL	Im	4a	8f#L	4D
8eeJ	.	.	8gJ	.
=5	=5	=5	=5	=5
4ff#	Him-	4dd	4a	8dL
.	.	.	.	8c#J
4ff#	-mel	8ddL	4d	8BL
.	.	8cc#J	.	8AJ
4.ee	ist	8bL	8eL	8G#L
.	.	8g#J	8dJ	8EJ
.	.	8aL	8c#L	8F#L
8dd	gut	8bJ	8BJ	8G#J
=6	=6	=6	=6	=6
8cc#L	woh-	8eL	4A	8AL
8bJ	.	8f#J	.	8G#
4cc#	.	4g#	4G#	8F#
.	.	.	.	8E#J
4a;	-nen,	4f#;	4c#;	4F#;
4cc#	hin-	4a	8f#L	4F#
.	.	.	8eJ	.
=7	=7	=7	=7	=7
4dd	-auf	8aL	4d	8BL
.	.	8g#J	.	8BBJ
4cc#	steht	4a	4e	8C#L
.	.	.	.	8DJ
4b	mein	4a	8eL	8EL
.	.	.	8f#J	8DJ
4b	Be-	4g#	8eL	8EL
.	.	.	8dJ	8EEJ
=8	=8	=8	=8	=8
2.a;	-gier,	2.e;	2.c#;	2.AA;
4a	da	4e	4A	4AA
=9	=9	=9	=9	=9
8f#L	wird	4d	4A	8DL
8gJ	.	.	.	8EJ
4a	Gott	4d	8dL	8F#L
.	.	.	8cnJ	8DJ
4b	e-	8dL	8BL	4G
.	.	8eJ	8c#J	.
4a	-wig	4f#	8dL	8F#L
.	.	.	8cnJ	8EJ
=10	=10	=10	=10	=10
4a	loh-	4f#	2B	4D#
8gL	.	4e	.	4E
8f#J	.	.	.	.
4f#;	-nen	4d#;	4B;	4BB;
4a	dem,	4dn	4cn	4FF#
=11	=11	=11	=11	=11
4g	der	4d	4B	8GGL
.	.	.	.	8AAJ
4f#	ihm	4d	4B	8BBL
.	.	.	.	8AAJ
4e	dient	4d	4B	8GGL
.	.	.	.	8EEJ
4e	all-	4c#	8AL	4AA
.	.	.	8GJ	.
=12	=12	=12	=12	=12
2.d;	-hier.	2.A;	2.F#;	2.DD;
==|!	==|!	==|!	==|!	==|!
*-	*-	*-	*-	*-
!!!RWG: Key is interpreted using the Humdrum key tool.
!!!END: 1994/08/03
!!!EMD: Converted from MuseData to Humdrum Dec 19, 2000, by Andreas Kornstaedt using muse2kern.
!!!EED: Craig Stuart Sapp
!!!EEV: 2024/03/31
!!!ONB: Some non-unicode characters
